src/static/logos/google-meet.svg

<?xml version="1.0" encoding="UTF-8"?>
<svg width="256px" height="297px" viewBox="0 0 256 297" version="1.1" xmlns="http://www.w3.org/2000/svg" xmlns:xlink="http://www.w3.org/1999/xlink" preserveAspectRatio="xMidYMid">
    <defs>
        <linearGradient x1="26.0700788%" y1="68.0422365%" x2="74.9491057%" y2="19.2791755%" id="linearGradient-1">
            <stop stop-color="#058B7E" offset="0%"></stop>
            <stop stop-color="#058D80" offset="0%"></stop>
            <stop stop-color="#058D7F" offset="100%"></stop>
        </linearGradient>
        <path d="M127.682686,0 C57.1657481,0 0,55.7909333 0,124.612267 C0,193.433916 57.1657481,249.224533 127.682686,249.224533 L127.954173,296.138272 C193.56002,258.867516 255.954173,209.119447 255.954173,124.612267 C255.954173,55.7909333 198.199941,0 127.682686,0 Z" id="path-2"></path>
        <filter x="-0.4%" y="-0.3%" width="100.8%" height="100.7%" filterUnits="objectBoundingBox" id="filter-3">
            <feOffset dx="0" dy="2" in="SourceAlpha" result="shadowOffsetInner1"></feOffset>
            <feComposite in="shadowOffsetInner1" in2="SourceAlpha" operator="arithmetic" k2="-1" k3="1" result="shadowInnerInner1"></feComposite>
            <feColorMatrix values="0 0 0 0 1   0 0 0 0 1   0 0 0 0 1  0 0 0 0.2 0" type="matrix" in="shadowInnerInner1"></feColorMatrix>
        </filter>
        <path d="M127.682686,0 C57.1657481,0 0,55.7909333 0,124.612267 C0,193.433916 57.1657481,249.224533 127.682686,249.224533 L127.954173,296.138272 C193.56002,258.867516 255.954173,209.119447 255.954173,124.612267 C255.954173,55.7909333 198.199941,0 127.682686,0 Z" id="path-4"></path>
        <filter x="-0.4%" y="-0.3%" width="100.8%" height="100.7%" filterUnits="objectBoundingBox" id="filter-5">
            <feOffset dx="0" dy="-2" in="SourceAlpha" result="shadowOffsetInner1"></feOffset>
            <feComposite in="shadowOffsetInner1" in2="SourceAlpha" operator="arithmetic" k2="-1" k3="1" result="shadowInnerInner1"></feComposite>
            <feColorMatrix values="0 0 0 0 0   0 0 0 0 0   0 0 0 0 0  0 0 0 0.1 0" type="matrix" in="shadowInnerInner1"></feColorMatrix>
        </filter>
        <path d="M127.682686,0 C57.1657481,0 0,55.7909333 0,124.612267 C0,193.433916 57.1657481,249.224533 127.682686,249.224533 L127.954173,296.138272 C193.56002,258.867516 255.954173,209.119447 255.954173,124.612267 C255.954173,55.7909333 198.199941,0 127.682686,0 Z" id="path-6"></path>
        <linearGradient x1="30.0482935%" y1="27.302306%" x2="81.9404293%" y2="84.6402399%" id="linearGradient-8">
            <stop stop-color="#000000" offset="0%"></stop>
            <stop stop-color="#D8D8D8" stop-opacity="0" offset="100%"></stop>
        </linearGradient>
        <path d="M55.5801916,128.105402 L55.5801916,162.34398 C55.5801916,171.382993 62.9757472,178.778548 72.0147595,178.778548 L157.030779,178.778548 C166.069792,178.778548 173.465347,171.382993 173.465347,162.34398 L173.465347,140.721146 L207.124606,174.380405 L207.124606,128.105402 L55.5801916,128.105402 Z" id="path-9"></path>
        <filter x="-1.0%" y="-3.0%" width="102.6%" height="111.8%" filterUnits="objectBoundingBox" id="filter-10">
            <feOffset dx="1" dy="3" in="SourceAlpha" result="shadowOffsetOuter1"></feOffset>
            <feColorMatrix values="0 0 0 0 0   0 0 0 0 0   0 0 0 0 0  0 0 0 0.1 0" type="matrix" in="shadowOffsetOuter1"></feColorMatrix>
        </filter>
    </defs>
		<g>
				<path d="M127.682686,0 C57.1657481,0 0,55.7909333 0,124.612267 C0,193.433916 57.1657481,249.224533 127.682686,249.224533 L127.954173,296.138272 C193.56002,258.867516 255.954173,209.119447 255.954173,124.612267 C255.954173,55.7909333 198.199941,0 127.682686,0 Z" fill="url(#linearGradient-1)"></path>
				<g fill="black" fill-opacity="1">
						<use filter="url(#filter-3)" xlink:href="#path-2"></use>
				</g>
				<g fill="black" fill-opacity="1">
						<use filter="url(#filter-5)" xlink:href="#path-4"></use>
				</g>
				<g>
						<mask id="mask-7" fill="white">
								<use xlink:href="#path-6"></use>
						</mask>
						<g></g>
						<polygon fill-opacity="0.21" fill="url(#linearGradient-8)" mask="url(#mask-7)" points="58.3180642 168.559565 167.355101 281.283951 311.894914 175.618212 207.440593 81.6987654 185.106647 119.970765"></polygon>
				</g>
				<g>
						<use fill="black" fill-opacity="1" filter="url(#filter-10)" xlink:href="#path-9"></use>
						<use fill="#F6F6F6" fill-rule="evenodd" xlink:href="#path-9"></use>
				</g>
				<path d="M207.124638,128.105402 L207.124638,81.6989235 L173.465379,115.28644 L173.465379,93.8668247 C173.465379,84.8274963 166.069823,77.4322568 157.030811,77.4322568 L72.0147911,77.4322568 C62.9757788,77.4322568 55.5802232,84.8274963 55.5802232,93.8668247 L55.5802232,128.105402 L207.124638,128.105402 Z" fill="#E2E2E2"></path>
		</g>
</svg>

<svg width="256" height="297" xmlns="http://www.w3.org/2000/svg" xmlns:xlink="http://www.w3.org/1999/xlink" preserveAspectRatio="xMidYMid"><defs><path d="M127.683 0C57.166 0 0 55.79 0 124.612s57.166 124.613 127.683 124.613l.271 46.913c65.606-37.27 128-87.019 128-171.526C255.954 55.791 198.2 0 127.683 0z" id="c"/><path d="M127.683 0C57.166 0 0 55.79 0 124.612s57.166 124.613 127.683 124.613l.271 46.913c65.606-37.27 128-87.019 128-171.526C255.954 55.791 198.2 0 127.683 0z" id="e"/><path d="M127.683 0C57.166 0 0 55.79 0 124.612s57.166 124.613 127.683 124.613l.271 46.913c65.606-37.27 128-87.019 128-171.526C255.954 55.791 198.2 0 127.683 0z" id="f"/><path d="M55.58 128.105v34.239c0 9.039 7.396 16.435 16.435 16.435h85.016c9.039 0 16.434-7.396 16.434-16.435v-21.623l33.66 33.66v-46.276H55.58z" id="j"/><filter x="-.4%" y="-.3%" width="100.8%" height="100.7%" filterUnits="objectBoundingBox" id="b"><feOffset dy="2" in="SourceAlpha" result="shadowOffsetInner1"/><feComposite in="shadowOffsetInner1" in2="SourceAlpha" operator="arithmetic" k2="-1" k3="1" result="shadowInnerInner1"/><feColorMatrix values="0 0 0 0 1 0 0 0 0 1 0 0 0 0 1 0 0 0 0.2 0" in="shadowInnerInner1"/></filter><filter x="-.4%" y="-.3%" width="100.8%" height="100.7%" filterUnits="objectBoundingBox" id="d"><feOffset dy="-2" in="SourceAlpha" result="shadowOffsetInner1"/><feComposite in="shadowOffsetInner1" in2="SourceAlpha" operator="arithmetic" k2="-1" k3="1" result="shadowInnerInner1"/><feColorMatrix values="0 0 0 0 0 0 0 0 0 0 0 0 0 0 0 0 0 0 0.1 0" in="shadowInnerInner1"/></filter><filter x="-1%" y="-3%" width="102.6%" height="111.8%" filterUnits="objectBoundingBox" id="i"><feOffset dx="1" dy="3" in="SourceAlpha" result="shadowOffsetOuter1"/><feColorMatrix values="0 0 0 0 0 0 0 0 0 0 0 0 0 0 0 0 0 0 0.1 0" in="shadowOffsetOuter1"/></filter><linearGradient x1="26.07%" y1="68.042%" x2="74.949%" y2="19.279%" id="a"><stop stop-color="#058B7E" offset="0%"/><stop stop-color="#058D80" offset="0%"/><stop stop-color="#058D7F" offset="100%"/></linearGradient><linearGradient x1="30.048%" y1="27.302%" x2="81.94%" y2="84.64%" id="g"><stop offset="0%"/><stop stop-color="#D8D8D8" stop-opacity="0" offset="100%"/></linearGradient></defs><path d="M127.683 0C57.166 0 0 55.79 0 124.612s57.166 124.613 127.683 124.613l.271 46.913c65.606-37.27 128-87.019 128-171.526C255.954 55.791 198.2 0 127.683 0z" fill="url(#a)"/><use filter="url(#b)" xlink:href="#c"/><use filter="url(#d)" xlink:href="#e"/><mask id="h" fill="#fff"><use xlink:href="#f"/></mask><path fill-opacity=".21" fill="url(#g)" mask="url(#h)" d="M58.318 168.56l109.037 112.724 144.54-105.666-104.454-93.92-22.334 38.273z"/><use filter="url(#i)" xlink:href="#j"/><use fill="#F6F6F6" fill-rule="evenodd" xlink:href="#j"/><path d="M207.125 128.105V81.7l-33.66 33.587v-21.42c0-9.039-7.395-16.434-16.434-16.434H72.015c-9.04 0-16.435 7.395-16.435 16.435v34.238h151.545z" fill="#E2E2E2"/></svg>
